X:71
T:Beauteous Grove
C:Kynaston, 1711
L:1/4
M:2/2
R:Reel
S:Colin Hume's website,  colinhume.com  - chords can also be printed below the stave.
Q:1/2=106
K:Em
P:A
|: B | "Em"e/f/e/f/ "B7"f3/e//f// | "Em"g3 f/g/ | "Am"a>g f/g/f/e/ | "B7"^d2- d/c/B/A/ |\
"Em"GB "B7"FB | "Am"E/G/F/E/ "B7"^DB, | "Em"E>F "Am"E//F//G/ "B7"F3//E// | "Em"E3 :|
P:B
B/A/ | "G"G/F/G/A/ B/A/B/c/ | "D"d3 e/d/ | "Am"cB AG | "D"F3 d/c/ |\
"G"Bd "D"Ad | "Em"Gd "D"F/d/c/d/ | "C"e/d/c/B/ "D"A>G | "G"G3 B |
"Em"e>f "B7"f3/e//f// | "Em"g3 a | "Em"ba/g/ "Am"f/g/f/e/ | "B7"^d2- d/c/B/A/ |\
"Em"GB "B7"FB | "Am"E^d e>f | "Em"g/f/e/g/ "B7"f/e/^d/f/ | "Em"e3 |]

